public/img/field-22.svg

<svg width="64" height="64" viewBox="0 0 64 64" fill="none" xmlns="http://www.w3.org/2000/svg">
<ellipse cx="35.5" cy="48" rx="13.5" ry="14" fill="#E30020"/>
<g clip-path="url(#clip0)">
<path d="M33.4439 44.2485C33.6318 44.5892 33.9903 44.8005 34.3794 44.8C34.7564 44.7994 35.1052 44.5998 35.2966 44.2749C35.488 43.9501 35.4938 43.5483 35.3116 43.2181C33.2562 39.5347 30.5672 36.2427 27.3682 33.4933C27.0805 33.2433 26.6812 33.1658 26.3209 33.29C25.9605 33.4142 25.6938 33.7212 25.6211 34.0953C25.5485 34.4695 25.681 34.854 25.9687 35.104C28.9787 37.689 31.5092 40.7846 33.4439 44.2485Z" fill="#5A2E91"/>
<path d="M4.26563 56.5333C4.26238 60.0243 6.68049 63.0508 10.0861 63.8181C13.4918 64.5854 16.9741 62.8884 18.4683 59.7333H20.2656V61.8667C20.2656 63.0449 21.2208 64 22.399 64H41.599C42.7772 64 43.7323 63.0449 43.7323 61.8667V59.7333H45.5296C47.1157 63.077 50.9117 64.7544 54.4519 63.6759C57.992 62.5973 60.208 59.0883 59.6603 55.4282C59.1125 51.7682 55.9664 49.0616 52.2656 49.0667H43.6544C47.9676 47.3746 51.6006 44.3044 53.9883 40.3339C54.6926 39.0861 54.4742 37.5212 53.455 36.5141C49.288 32.5692 44.0515 29.9389 38.399 28.9515V25.6C40.7554 25.6 42.6656 23.6897 42.6656 21.3333V17.0667H43.7323C44.5009 17.0667 45.2101 16.6532 45.5887 15.9844C45.9674 15.3156 45.9571 14.4948 45.5616 13.8357C45.5406 13.8006 45.5175 13.7667 45.4923 13.7344L42.6592 10.0523C42.5798 7.32203 41.4114 4.73705 39.4144 2.87359C37.2252 0.827752 34.2783 -0.206145 31.2907 0.0234577C25.6039 0.49757 21.2537 5.29137 21.3323 10.9973V18.1333C21.3362 21.0137 22.9965 23.6349 25.599 24.8693V28.9472C19.9527 29.9347 14.722 32.5623 10.559 36.5024C9.52834 37.511 9.30429 39.0864 10.0128 40.3424C12.4001 44.3097 16.0316 47.3768 20.3424 49.0667H11.7323C7.61052 49.0714 4.27033 52.4115 4.26563 56.5333ZM41.599 61.8667H22.399V59.7333H41.599V61.8667ZM57.599 56.5333C57.599 59.4788 55.2112 61.8667 52.2656 61.8667C49.3201 61.8667 46.9323 59.4788 46.9323 56.5333C46.9323 55.9442 47.4099 55.4667 47.999 55.4667C48.5881 55.4667 49.0656 55.9442 49.0656 56.5333C49.0656 57.1224 49.5432 57.6 50.1323 57.6C50.7214 57.6 51.199 57.1224 51.199 56.5333C51.199 54.766 49.7663 53.3333 47.999 53.3333C46.2317 53.3333 44.799 54.766 44.799 56.5333C44.802 56.8905 44.8305 57.2469 44.8843 57.6H19.1136C19.1675 57.2469 19.196 56.8905 19.199 56.5333C19.199 54.766 17.7663 53.3333 15.999 53.3333C14.2317 53.3333 12.799 54.766 12.799 56.5333C12.799 57.1224 13.2765 57.6 13.8656 57.6C14.4547 57.6 14.9323 57.1224 14.9323 56.5333C14.9323 55.9442 15.4099 55.4667 15.999 55.4667C16.5881 55.4667 17.0656 55.9442 17.0656 56.5333C17.0656 59.4788 14.6778 61.8667 11.7323 61.8667C8.78678 61.8667 6.39896 59.4788 6.39896 56.5333C6.39896 53.5878 8.78678 51.2 11.7323 51.2H52.2656C55.2097 51.2035 57.5954 53.5893 57.599 56.5333ZM31.4294 2.15359C33.827 1.9682 36.193 2.79348 37.9552 4.42986C38.3892 4.83827 38.7773 5.29288 39.1126 5.78559C38.3158 5.91252 37.4528 6.06399 36.528 6.24959C36.54 5.75358 36.2063 5.31561 35.725 5.19539C35.2436 5.07518 34.7432 5.30487 34.5206 5.74826L33.9744 6.81492C33.4123 6.95252 32.8395 7.10506 32.2614 7.26719C32.2227 6.92187 32.0153 6.6182 31.7078 6.45652C31.1832 6.18892 30.5409 6.3971 30.2731 6.92159L29.6918 8.06186C29.1115 8.25919 28.5334 8.46719 27.9584 8.69119C27.8672 8.45039 27.6907 8.25149 27.4624 8.13226C27.2104 8.00341 26.9175 7.98002 26.6482 8.06725C26.3789 8.15448 26.1553 8.34517 26.0267 8.59733L25.4144 9.79946C24.7481 10.1237 24.1007 10.4715 23.472 10.8427C23.4672 6.31999 26.9237 2.54561 31.4294 2.15359ZM28.799 25.6C29.3881 25.6 29.8656 25.1224 29.8656 24.5333C29.8656 23.9442 29.3881 23.4667 28.799 23.4667C25.8549 23.4631 23.4692 21.0774 23.4656 18.1333V13.3717C24.3351 12.791 25.2427 12.2696 26.1824 11.8112L27.2491 12.352C27.399 12.4274 27.5645 12.4669 27.7323 12.4672C28.1374 12.4697 28.5083 12.2408 28.6877 11.8775C28.867 11.5143 28.8232 11.0806 28.575 10.7605C29.1687 10.5259 29.7664 10.3061 30.368 10.1013L31.4944 10.6763C31.7466 10.805 32.0396 10.8283 32.3089 10.7408C32.5782 10.6534 32.8017 10.4625 32.9302 10.2101C33.0702 9.92715 33.0757 9.59625 32.9451 9.30879C33.4898 9.15732 34.0231 9.01759 34.5451 8.88959L35.7376 9.49759C35.887 9.57488 36.0527 9.61512 36.2208 9.61492C36.6223 9.61532 36.99 9.39025 37.1723 9.03253C37.2871 8.80093 37.313 8.53523 37.2448 8.28586C38.3307 8.07252 39.3056 7.90612 40.1035 7.78559C40.3878 8.63562 40.5326 9.52607 40.5323 10.4224C40.5324 10.6578 40.6104 10.8866 40.7542 11.0731L43.7238 14.9333H41.599C41.0099 14.9333 40.5323 15.4109 40.5323 16V17.0667H28.799C28.2099 17.0667 27.7323 16.5891 27.7323 16V14.9333C27.7323 14.3442 27.2547 13.8667 26.6656 13.8667C26.0765 13.8667 25.599 14.3442 25.599 14.9333V16C25.599 17.7673 27.0317 19.2 28.799 19.2H40.5323V21.3333C40.5323 22.5115 39.5772 23.4667 38.399 23.4667H33.0656C32.4765 23.4667 31.999 23.9442 31.999 24.5333C31.999 25.1224 32.4765 25.6 33.0656 25.6H36.2656V28.9504C36.2627 29.983 37.0025 30.8681 38.0192 31.0485C43.2455 31.9571 48.0888 34.3836 51.9456 38.0256C52.283 38.3493 52.3617 38.8589 52.1376 39.2693C50.4301 42.1374 47.972 44.485 45.0283 46.0587C39.999 35.6661 30.3339 30.4416 27.7323 29.1851V25.5157C28.0854 25.5692 28.4419 25.5974 28.799 25.6ZM26.5024 30.9653C28.2091 31.7707 38.1707 36.8171 43.1062 46.9803C39.6185 48.4135 35.8759 49.1233 32.1056 49.0667C29.706 42.6029 25.4776 36.9769 19.936 32.8747C22.041 31.9793 24.2454 31.3387 26.5024 30.9664V30.9653ZM11.8614 39.2736C11.6365 38.8567 11.7192 38.3408 12.063 38.0149C13.7401 36.3712 15.6535 34.9874 17.7398 33.9093C23.1476 37.6549 27.3444 42.8976 29.8155 48.9941C18.3083 48.2827 13.4571 42.0491 11.8614 39.2736Z" fill="#5A2E91"/>
<path d="M25.5979 55.4666H38.3979C38.987 55.4666 39.4646 54.9891 39.4646 54.4C39.4646 53.8109 38.987 53.3333 38.3979 53.3333H25.5979C25.0088 53.3333 24.5312 53.8109 24.5312 54.4C24.5312 54.9891 25.0088 55.4666 25.5979 55.4666Z" fill="#5A2E91"/>
</g>
<defs>
<clipPath id="clip0">
<rect width="64" height="64" fill="white"/>
</clipPath>
</defs>
</svg>

<svg width="64" height="64" fill="none" xmlns="http://www.w3.org/2000/svg"><ellipse cx="35.5" cy="48" rx="13.5" ry="14" fill="#E30020"/><g clip-path="url(#clip0)" fill="#5A2E91"><path d="M33.444 44.248a1.067 1.067 0 101.868-1.03 35.871 35.871 0 00-7.944-9.725 1.067 1.067 0 10-1.4 1.611 33.743 33.743 0 017.476 9.145z"/><path d="M4.266 56.533a7.46 7.46 0 0014.202 3.2h1.798v2.134c0 1.178.955 2.133 2.133 2.133h19.2a2.133 2.133 0 002.133-2.133v-2.134h1.798a7.467 7.467 0 106.736-10.666h-8.612a21.014 21.014 0 0010.334-8.733 3.176 3.176 0 00-.533-3.82 29.212 29.212 0 00-15.056-7.563V25.6a4.267 4.267 0 004.267-4.267v-4.266h1.066a2.133 2.133 0 001.83-3.231.996.996 0 00-.07-.102l-2.833-3.682a10.225 10.225 0 00-3.245-7.178 10.697 10.697 0 00-8.123-2.85 10.862 10.862 0 00-9.959 10.973v7.136A7.466 7.466 0 0025.6 24.87v4.078a29.197 29.197 0 00-15.04 7.555 3.184 3.184 0 00-.546 3.84 21.001 21.001 0 0010.33 8.725h-8.61a7.475 7.475 0 00-7.467 7.466zm37.333 5.334h-19.2v-2.134h19.2v2.134zm16-5.334a5.333 5.333 0 01-10.667 0 1.067 1.067 0 012.134 0 1.067 1.067 0 002.133 0 3.2 3.2 0 00-6.4 0 7.5 7.5 0 00.085 1.067h-25.77c.053-.353.082-.71.085-1.067a3.2 3.2 0 00-6.4 0 1.067 1.067 0 102.133 0 1.067 1.067 0 012.134 0 5.333 5.333 0 11-5.334-5.333h40.534a5.34 5.34 0 015.333 5.333zm-26.17-54.38a8.614 8.614 0 016.526 2.277c.434.408.822.863 1.158 1.356-.797.127-1.66.278-2.585.464a1.06 1.06 0 00-2.007-.502l-.547 1.067c-.562.138-1.134.29-1.713.452a1.048 1.048 0 00-.553-.81 1.067 1.067 0 00-1.435.465l-.581 1.14a42.18 42.18 0 00-1.734.63 1.05 1.05 0 00-1.31-.625c-.27.087-.493.278-.621.53L25.414 9.8a27.4 27.4 0 00-1.942 1.044 8.713 8.713 0 017.957-8.69zM28.8 25.6a1.067 1.067 0 000-2.133 5.34 5.34 0 01-5.333-5.334v-4.761a23.23 23.23 0 012.716-1.56l1.067.54c.15.075.316.115.483.115a1.058 1.058 0 00.843-1.707 39.636 39.636 0 011.793-.659l1.126.575a1.067 1.067 0 001.436-.466 1.05 1.05 0 00.015-.901 53.793 53.793 0 011.6-.42l1.193.609a1.067 1.067 0 001.435-.465c.114-.232.14-.498.072-.747 1.086-.213 2.06-.38 2.858-.5.285.85.43 1.74.43 2.636 0 .236.077.465.221.651l2.97 3.86H41.6c-.59 0-1.067.478-1.067 1.067v1.067H28.8c-.59 0-1.067-.478-1.067-1.067v-1.067a1.067 1.067 0 00-2.133 0V16a3.2 3.2 0 003.2 3.2h11.733v2.133a2.133 2.133 0 01-2.133 2.134h-5.333a1.067 1.067 0 100 2.133h3.2v3.35a2.125 2.125 0 001.753 2.099 27.026 27.026 0 0113.927 6.977c.337.323.416.833.192 1.243a18.333 18.333 0 01-7.11 6.79C40 35.666 30.334 30.442 27.732 29.185v-3.67c.353.054.71.082 1.067.085zm-2.297 5.365c1.707.806 11.669 5.852 16.604 16.015a27.843 27.843 0 01-11 2.087 35.531 35.531 0 00-12.17-16.192 28.715 28.715 0 016.566-1.909zm-14.64 8.309a1.048 1.048 0 01.201-1.26 23.567 23.567 0 015.677-4.105 33.79 33.79 0 0112.076 15.085c-11.508-.711-16.359-6.945-17.955-9.72z"/><path d="M25.598 55.467h12.8a1.067 1.067 0 100-2.134h-12.8a1.067 1.067 0 000 2.134z"/></g><defs><clipPath id="clip0"><path fill="#fff" d="M0 0h64v64H0z"/></clipPath></defs></svg>
